assets/img/main/trust/bi.svg

<svg width="250" height="72" viewBox="0 0 250 72" fill="none" xmlns="http://www.w3.org/2000/svg">
<path d="M122.891 33.4582C122.891 29.4433 122.906 25.5653 122.883 21.6875C122.876 20.5275 123.294 19.8396 124.533 19.8537C129.594 19.9113 134.667 19.7883 139.714 20.0922C143.642 20.3287 146.91 22.2235 148.332 26.0659C149.775 29.9679 149.52 33.8792 146.332 36.9714C145.066 38.2 143.358 38.9741 141.724 40.0382C142.58 41.2681 143.525 42.6442 144.49 44.0064C145.938 46.0523 147.419 48.0756 148.84 50.141C149.092 50.5081 149.28 51.0739 149.181 51.4687C149.125 51.6932 148.435 51.794 148.016 51.8809C147.709 51.9444 147.369 51.8416 147.062 51.9031C144.272 52.4621 142.62 51.1256 141.219 48.831C139.632 46.2311 137.716 43.8309 135.911 41.3669C135.699 41.0774 135.293 40.7595 134.969 40.7507C132.923 40.6947 130.876 40.7223 128.677 40.7223C128.648 41.2975 128.603 41.7786 128.601 42.2598C128.594 44.9515 128.567 47.6437 128.612 50.3347C128.631 51.4236 128.272 51.8902 127.123 51.9136C122.89 52.0001 122.89 52.0296 122.89 47.8294C122.89 43.0846 122.891 38.3399 122.891 33.4582ZM131.102 24.9781C130.646 24.9788 130.19 24.9865 129.734 24.9785C128.956 24.9649 128.551 25.2948 128.555 26.1183C128.569 28.9921 128.576 31.8662 128.55 34.7398C128.543 35.55 128.922 35.7313 129.643 35.7221C132.197 35.6897 134.752 35.7251 137.306 35.6775C138.025 35.6641 138.762 35.5277 139.454 35.3215C142.183 34.5077 143.5 32.5967 143.326 29.8009C143.173 27.3403 141.602 25.5587 138.871 25.2521C136.391 24.9736 133.87 25.0552 131.102 24.9781Z" fill="#1E619D"/>
<path d="M153.711 31.3186C155.621 24.7737 160.928 20.1729 167.444 19.4852C174.716 18.7177 180.675 21.0882 184.364 27.5787C187.502 33.0986 187.417 38.9452 184.178 44.4095C180.885 49.9664 175.691 52.5697 169.263 52.3786C158.121 52.0475 151.054 42.4674 153.711 31.3186ZM159.289 38.5488C160.875 44.9866 166.779 48.5698 172.909 46.8151C177.867 45.3959 181.014 40.5182 180.53 34.7833C180.184 30.6871 178.284 27.4307 174.526 25.6109C170.864 23.8378 167.116 23.9904 163.74 26.3495C159.571 29.2626 158.538 33.499 159.289 38.5488Z" fill="#1E619D"/>
<path d="M97.0549 44.9053C101.527 48.0996 106.051 47.9137 110.677 45.5183C111.406 45.1405 111.744 44.6573 111.708 43.798C111.643 42.2153 111.69 40.628 111.69 38.9049C109.41 38.9049 107.272 38.8529 105.138 38.9254C103.956 38.9656 103.504 38.5757 103.532 37.3644C103.625 33.373 103.099 34.0403 106.845 33.999C109.811 33.9662 112.778 34.0275 115.744 33.9739C116.809 33.9547 117.211 34.3173 117.2 35.3892C117.163 39.0856 117.213 42.783 117.153 46.4787C117.145 46.9811 116.831 47.6537 116.435 47.9485C109.99 52.7516 103.008 54.0352 95.6364 50.4443C90.1275 47.7606 87.5947 42.8654 87.2825 36.9258C86.6877 25.6071 96.12 17.5664 107.411 19.5666C109.923 20.0117 112.237 20.8801 114.33 22.3449C115.794 23.37 115.875 23.824 114.783 25.1772C112.715 27.7377 112.767 27.6407 109.876 26.0929C106.112 24.0772 102.168 23.6865 98.4006 25.9861C94.5358 28.345 93.0656 32.0926 93.2076 36.489C93.3132 39.7597 94.4299 42.6409 97.0549 44.9053Z" fill="#1E629D"/>
<path d="M234.18 41.62C233.007 41.62 231.97 41.62 230.798 41.62C230.798 44.5451 230.801 47.3169 230.797 50.0886C230.795 51.7697 230.683 51.8797 229.024 51.8965C225.081 51.9362 225.081 51.9362 225.081 47.9428C225.081 39.4075 225.079 30.8723 225.082 22.337C225.082 20.0518 225.291 19.8291 227.587 19.8534C231.784 19.8979 235.998 19.753 240.171 20.0927C244.415 20.438 247.723 22.5689 249.23 26.751C250.688 30.7989 250.12 34.6325 247.159 37.8504C244.699 40.5235 241.387 41.3937 237.876 41.5943C236.693 41.6618 235.503 41.6147 234.18 41.62ZM232.2 24.9819C231.553 24.9884 230.819 24.9336 230.814 25.8661C230.793 29.3601 230.805 32.8542 230.805 36.4036C233.567 36.4036 236.216 36.6029 238.822 36.3534C242.116 36.0381 244.166 33.6506 244.155 30.6498C244.143 27.5266 242.29 25.5395 238.734 25.152C236.661 24.926 234.552 25.0276 232.2 24.9819Z" fill="#1F629D"/>
<path d="M191.247 22.5508C191.251 20.0026 191.399 19.8449 193.78 19.8518C197.388 19.8622 196.908 19.5235 196.922 22.9854C196.94 27.9113 196.876 32.8382 196.958 37.7628C196.983 39.2452 197.168 40.7905 197.637 42.1872C198.893 45.9289 202.113 47.6423 206.468 47.1089C209.935 46.6841 212.418 44.1137 212.838 40.4499C212.962 39.3655 213.004 38.2667 213.008 37.1743C213.025 31.9291 213.042 26.6836 212.996 21.4388C212.986 20.2674 213.347 19.7462 214.559 19.8376C215.466 19.9061 216.415 19.7127 217.282 19.9119C217.799 20.0307 218.586 20.6838 218.584 21.0947C218.563 27.9749 218.802 34.8855 218.226 41.7257C217.697 48.0051 212.876 52 206.554 52.2825C204.659 52.3672 202.699 52.2931 200.852 51.8979C195.688 50.7923 192.327 47.0134 191.543 41.6815C191.358 40.4233 191.269 39.1407 191.261 37.8685C191.229 32.806 191.247 27.7432 191.247 22.5508Z" fill="#1E629D"/>
<path d="M6.60791 26.9688C6.58311 27.3342 6.49294 27.7627 6.33105 28.2225C6.35374 27.8465 6.44814 27.4391 6.60791 26.9688Z" fill="#428CBF"/>
<path d="M5.80011 30.2605C5.84147 30.4427 5.83328 30.6945 5.7543 30.9705C5.70586 30.7732 5.72821 30.5517 5.80011 30.2605Z" fill="#428CBF"/>
<path d="M5.6416 40.6501C5.76385 40.804 5.86203 41.0437 5.90061 41.3348C5.76652 41.1694 5.69203 40.9527 5.6416 40.6501Z" fill="#4087BA"/>
<path d="M31.4819 6.54224C31.3932 6.6313 31.236 6.69319 31.042 6.70415C31.1412 6.60716 31.2773 6.56112 31.4819 6.54224Z" fill="#428CBF"/>
<path d="M49.2735 6.88229C49.1577 6.919 48.987 6.90294 48.8008 6.81997C48.9298 6.77854 49.0742 6.80403 49.2735 6.88229Z" fill="#3581B6"/>
<path d="M6.28027 43.6465C6.38759 43.7244 6.46261 43.873 6.49533 44.062C6.38468 43.974 6.31633 43.8456 6.28027 43.6465Z" fill="#4087BA"/>
<path d="M5.94434 42.2803C6.05429 42.362 6.13863 42.5184 6.17047 42.7143C6.05156 42.6209 5.98514 42.4879 5.94434 42.2803Z" fill="#4087BA"/>
<path d="M50.6316 7.19991C50.522 7.24863 50.3615 7.24142 50.1787 7.17987C50.2978 7.13167 50.4394 7.13782 50.6316 7.19991Z" fill="#3581B6"/>
<path d="M6.0875 28.8794C6.13185 28.9885 6.12269 29.1492 6.05678 29.3302C6.01135 29.2107 6.02268 29.0708 6.0875 28.8794Z" fill="#428CBF"/>
<path d="M52.3911 7.92291C52.3576 7.93517 52.2627 7.91248 52.1201 7.83348C52.1582 7.81411 52.244 7.85104 52.3911 7.92291Z" fill="#3581B6"/>
<ellipse cx="40.8521" cy="36.3337" rx="31.4947" ry="27.5236" fill="url(#paint0_linear_142_665)"/>
<path d="M78.5611 35.7824C78.5611 53.177 62.2233 68.0649 41.0305 68.0649C19.8378 68.0649 3.5 53.177 3.5 35.7824C3.5 18.3879 19.8378 3.5 41.0305 3.5C62.2233 3.5 78.5611 18.3879 78.5611 35.7824Z" stroke="url(#paint1_linear_142_665)" stroke-width="7"/>
<path d="M27.7266 52.6909C26.5651 52.6946 25.5291 52.6515 24.493 52.6475C22.0439 52.6381 22.0439 52.6456 21.9946 50.0862C21.9907 46.8537 22.0015 43.7431 21.9961 40.5053C21.9806 37.9978 21.9812 35.6174 21.9561 33.1164C21.9664 29.5017 22.0077 26.0076 22.0365 22.5134C22.0532 20.4769 22.1644 20.3585 24.2143 20.3544C25.169 20.3525 26.1236 20.3465 27.2045 20.3172C29.9844 20.3071 32.6381 20.3221 35.4182 20.3125C38.0195 20.3777 40.4703 20.5769 42.7838 21.8782C44.9564 23.2657 46.2659 25.1333 46.6714 27.8227C46.9007 31.3618 45.5049 33.8915 42.8619 35.5413C44.3891 36.7427 45.8349 37.8801 47.2806 39.0176C47.4646 39.4143 47.6485 39.811 47.8728 40.3686C47.9913 40.6602 48.0695 40.7909 48.1477 40.9216C48.157 41.0457 48.1664 41.1699 48.1999 41.4559C48.2872 41.7519 48.3504 41.8859 48.4136 42.02C48.3938 43.1116 48.4979 44.2224 48.3317 45.2913C47.7447 49.067 45.2115 51.0696 41.7347 51.9132C39.8057 52.3813 37.7736 52.4242 35.6654 52.6888C32.9793 52.6999 30.4157 52.6809 27.7266 52.6909ZM28.9655 43.9063C28.9616 44.4075 28.8425 44.946 28.9892 45.3984C29.112 45.7768 29.5453 46.3333 29.8414 46.3335C32.7069 46.3355 35.5816 46.3514 38.435 46.1261C40.3329 45.9763 41.4671 44.5374 41.4601 42.8326C41.4534 41.1973 40.3679 39.8625 38.5214 39.5881C37.0046 39.3627 35.4449 39.4256 33.6538 39.2978C32.1261 39.2978 30.5983 39.2978 29.0234 39.2978C29.0234 40.8756 29.0234 42.271 28.9655 43.9063ZM33.4665 33.4257C34.552 33.3398 35.6566 33.3527 36.7188 33.1467C38.7024 32.762 39.683 31.5493 39.6203 29.7768C39.5614 28.1088 38.5283 26.9156 36.5473 26.721C34.3372 26.5038 32.0988 26.5401 29.8732 26.5528C29.5685 26.5545 29.0146 27.0466 29.0037 27.3282C28.9275 29.3102 28.9633 31.2966 28.9633 33.4256C30.4888 33.4256 31.8439 33.4256 33.4665 33.4257Z" fill="#FCFDFE"/>
<path d="M58.4252 20.3208C59.485 20.5341 59.6872 21.2045 59.678 22.0672C59.6564 24.0711 59.6789 26.0755 59.7187 28.2039C59.7249 32.4266 59.687 36.525 59.6698 40.6235C59.6559 43.9502 59.6722 47.277 59.6645 50.6038C59.6604 52.369 59.3769 52.6382 57.5791 52.6441C56.3942 52.6479 55.2055 52.5855 54.0256 52.6615C52.8697 52.736 52.5224 52.2578 52.5293 51.1487C52.5617 45.9082 52.5344 40.6673 52.5319 35.1764C52.5141 31.084 52.4929 27.2418 52.4717 23.3996C52.4932 23.3114 52.5294 23.224 52.5342 23.1349C52.6817 20.3476 52.6812 20.3485 55.4344 20.3502C56.389 20.3508 57.3436 20.3455 58.4252 20.3208Z" fill="#FAFCFD"/>
<defs>
<linearGradient id="paint0_linear_142_665" x1="19.4905" y1="17.7107" x2="62.8984" y2="57.0106" gradientUnits="userSpaceOnUse">
<stop stop-color="#3581B6"/>
<stop offset="1" stop-color="#17598E"/>
</linearGradient>
<linearGradient id="paint1_linear_142_665" x1="11.3322" y1="10.8903" x2="70.4893" y2="62.5049" gradientUnits="userSpaceOnUse">
<stop stop-color="#3480B5"/>
<stop offset="1" stop-color="#1A5D92"/>
</linearGradient>
</defs>
</svg>

<svg width="250" height="72" fill="none" xmlns="http://www.w3.org/2000/svg"><path d="M122.891 33.458c0-4.015.015-7.893-.008-11.77-.007-1.16.411-1.848 1.65-1.834 5.061.057 10.134-.066 15.181.238 3.928.237 7.196 2.132 8.618 5.974 1.443 3.902 1.188 7.813-2 10.905-1.266 1.229-2.974 2.003-4.608 3.067.856 1.23 1.801 2.606 2.766 3.968 1.448 2.046 2.929 4.07 4.35 6.135.252.367.44.933.341 1.328-.056.224-.746.325-1.165.412-.307.063-.647-.04-.954.022-2.79.56-4.442-.777-5.843-3.072-1.587-2.6-3.503-5-5.308-7.464-.212-.29-.618-.607-.942-.616-2.046-.056-4.093-.029-6.292-.029-.029.575-.074 1.057-.076 1.538-.007 2.692-.034 5.384.011 8.075.019 1.089-.34 1.555-1.489 1.579-4.233.086-4.233.116-4.233-4.085l.001-14.37zm8.211-8.48c-.456 0-.912.008-1.368 0-.778-.013-1.183.317-1.179 1.14.014 2.874.021 5.748-.005 8.622-.007.81.372.991 1.093.982 2.554-.032 5.109.003 7.663-.044a8.156 8.156 0 002.148-.356c2.729-.814 4.046-2.725 3.872-5.521-.153-2.46-1.724-4.242-4.455-4.549-2.48-.278-5.001-.197-7.769-.274zm22.609 6.341c1.91-6.545 7.217-11.146 13.733-11.834 7.272-.767 13.231 1.603 16.92 8.094 3.138 5.52 3.053 11.366-.186 16.83-3.293 5.557-8.487 8.16-14.915 7.97-11.142-.331-18.209-9.912-15.552-21.06zm5.578 7.23c1.586 6.438 7.49 10.02 13.62 8.266 4.958-1.42 8.105-6.297 7.621-12.032-.346-4.096-2.246-7.352-6.004-9.172-3.662-1.773-7.41-1.62-10.786.738-4.169 2.914-5.202 7.15-4.451 12.2z" fill="#1E619D"/><path d="M97.055 44.905c4.472 3.195 8.996 3.009 13.622.613.729-.377 1.067-.86 1.031-1.72-.065-1.583-.018-3.17-.018-4.893-2.28 0-4.418-.052-6.552.02-1.182.04-1.634-.35-1.606-1.56.093-3.992-.433-3.325 3.313-3.366 2.966-.033 5.933.029 8.899-.025 1.065-.02 1.467.343 1.456 1.415-.037 3.697.013 7.394-.047 11.09-.008.502-.322 1.175-.718 1.47-6.445 4.803-13.427 6.086-20.799 2.495-5.508-2.683-8.041-7.579-8.353-13.518-.595-11.319 8.837-19.36 20.128-17.36 2.512.446 4.826 1.314 6.919 2.779 1.464 1.025 1.545 1.479.453 2.832-2.068 2.56-2.016 2.464-4.907.916-3.764-2.016-7.708-2.407-11.475-.107-3.865 2.359-5.335 6.107-5.193 10.503.105 3.27 1.222 6.152 3.847 8.416z" fill="#1E629D"/><path d="M234.18 41.62h-3.382c0 2.925.003 5.697-.001 8.469-.002 1.68-.114 1.79-1.773 1.808-3.943.04-3.943.04-3.943-3.954 0-8.535-.002-17.07.001-25.606 0-2.285.209-2.508 2.505-2.484 4.197.045 8.411-.1 12.584.24 4.244.345 7.552 2.476 9.059 6.658 1.458 4.048.89 7.881-2.071 11.1-2.46 2.672-5.772 3.543-9.283 3.743-1.183.068-2.373.02-3.696.026zm-1.98-16.638c-.647.006-1.381-.048-1.386.884-.021 3.494-.009 6.988-.009 10.538 2.762 0 5.411.199 8.017-.05 3.294-.316 5.344-2.703 5.333-5.704-.012-3.123-1.865-5.11-5.421-5.498-2.073-.226-4.182-.124-6.534-.17z" fill="#1F629D"/><path d="M191.247 22.55c.004-2.547.152-2.705 2.533-2.698 3.608.01 3.128-.329 3.142 3.133.018 4.926-.046 9.853.036 14.778.025 1.482.21 3.028.679 4.424 1.256 3.742 4.476 5.455 8.831 4.922 3.467-.425 5.95-2.995 6.37-6.66a29.82 29.82 0 00.17-3.275c.017-5.245.034-10.49-.012-15.735-.01-1.172.351-1.693 1.563-1.601.907.068 1.856-.125 2.723.074.517.119 1.304.772 1.302 1.183-.021 6.88.218 13.79-.358 20.63-.529 6.28-5.35 10.275-11.672 10.557-1.895.085-3.855.011-5.702-.384-5.164-1.106-8.525-4.885-9.309-10.217a27.478 27.478 0 01-.282-3.813c-.032-5.062-.014-10.125-.014-15.317z" fill="#1E629D"/><path d="M6.608 26.969a4.838 4.838 0 01-.277 1.253c.023-.376.117-.783.277-1.253zM5.8 30.26c.041.183.033.434-.046.71-.048-.197-.026-.418.046-.71z" fill="#428CBF"/><path d="M5.642 40.65c.122.154.22.394.259.685-.134-.166-.209-.382-.26-.685z" fill="#4087BA"/><path d="M31.482 6.542c-.089.09-.246.151-.44.162.1-.097.235-.143.44-.162z" fill="#428CBF"/><path d="M49.273 6.882c-.115.037-.286.02-.472-.062.129-.041.273-.016.472.062z" fill="#3581B6"/><path d="M6.28 43.647c.108.077.183.226.215.415-.11-.088-.179-.216-.215-.415zm-.336-1.367c.11.082.195.238.226.434-.118-.093-.185-.226-.226-.434z" fill="#4087BA"/><path d="M50.632 7.2c-.11.049-.27.041-.453-.02.119-.048.26-.042.453.02z" fill="#3581B6"/><path d="M6.088 28.88c.044.108.035.27-.031.45-.046-.12-.034-.26.03-.45z" fill="#428CBF"/><path d="M52.391 7.923c-.033.012-.128-.01-.27-.09.037-.019.123.018.27.09z" fill="#3581B6"/><ellipse cx="40.852" cy="36.334" rx="31.495" ry="27.524" fill="url(#paint0_linear_142_665)"/><path d="M78.561 35.782c0 17.395-16.338 32.283-37.53 32.283C19.838 68.065 3.5 53.177 3.5 35.782 3.5 18.388 19.838 3.5 41.03 3.5c21.193 0 37.531 14.888 37.531 32.282z" stroke="url(#paint1_linear_142_665)" stroke-width="7"/><path d="M27.727 52.69c-1.162.005-2.198-.038-3.234-.042-2.45-.01-2.45-.002-2.498-2.562-.004-3.232.006-6.343.001-9.58-.015-2.508-.015-4.889-.04-7.39.01-3.614.052-7.108.08-10.603.017-2.036.128-2.155 2.178-2.159.955-.002 1.91-.008 2.99-.037 2.78-.01 5.434.005 8.214-.005 2.602.066 5.052.265 7.366 1.566 2.172 1.388 3.482 3.255 3.887 5.945.23 3.539-1.166 6.069-3.81 7.718l4.42 3.477c.184.396.367.793.592 1.35.118.292.197.423.275.554.009.124.018.248.052.534.087.296.15.43.214.564-.02 1.092.084 2.202-.082 3.271-.587 3.776-3.12 5.779-6.597 6.622-1.93.468-3.961.511-6.07.776-2.686.01-5.25-.008-7.938.002zm1.238-8.784c-.003.502-.122 1.04.024 1.492.123.379.556.935.852.935 2.866.003 5.74.018 8.594-.207 1.898-.15 3.032-1.589 3.025-3.293-.007-1.636-1.092-2.97-2.939-3.245-1.516-.225-3.076-.162-4.867-.29h-4.63c0 1.578 0 2.973-.059 4.608zm4.502-10.48c1.085-.086 2.19-.073 3.252-.28 1.983-.384 2.964-1.597 2.901-3.37-.059-1.667-1.092-2.86-3.073-3.055-2.21-.217-4.448-.18-6.674-.168-.305.002-.858.494-.87.775-.076 1.982-.04 3.969-.04 6.098h4.504z" fill="#FCFDFE"/><path d="M58.425 20.32c1.06.214 1.262.884 1.253 1.747-.022 2.004 0 4.009.04 6.137.007 4.223-.031 8.321-.048 12.42-.014 3.326.002 6.653-.006 9.98-.004 1.765-.287 2.034-2.085 2.04-1.185.004-2.373-.058-3.553.017-1.156.075-1.504-.403-1.497-1.512.033-5.24.005-10.482.003-15.973-.018-4.092-.04-7.934-.06-11.776.021-.089.057-.176.062-.265.148-2.787.147-2.787 2.9-2.785.955 0 1.91-.005 2.991-.03z" fill="#FAFCFD"/><defs><linearGradient id="paint0_linear_142_665" x1="19.491" y1="17.711" x2="62.898" y2="57.011" gradientUnits="userSpaceOnUse"><stop stop-color="#3581B6"/><stop offset="1" stop-color="#17598E"/></linearGradient><linearGradient id="paint1_linear_142_665" x1="11.332" y1="10.89" x2="70.489" y2="62.505" gradientUnits="userSpaceOnUse"><stop stop-color="#3480B5"/><stop offset="1" stop-color="#1A5D92"/></linearGradient></defs></svg>
